X:1
T:Cradled All Lowly
T:Cradled All Lowly
T:Charles François Gounod
T:Henry Brougham Farnie, 1874
T:Public Domain Courtesy of the Cyber Hymnal™
C:Charles François Gounod
Z:Public Domain
Z:Courtesy of the Cyber Hymnal™
%%score ( 1 2 ) 3
L:1/8
Q:1/4=105
M:6/8
K:Bb
V:1 treble 
V:2 treble 
V:3 bass 
V:1
 [DB]3 [Ec]2 [Fd] | [DB]3 [DB] z [DF] | [EG]2 [EG] [DF]2 [CE] | [B,D]2 [A,C] [B,D]2 [CE] | %4
w: 1.~Cra- dled all|low- ly, Be-|hold the Sav- ior|Child! A be- ing|
w: 2.~No long- er|sor- row As|with- out hope, O|earth! A bright- er|
w: 3.~Babe weak and|wail- ing, In|low- ly vil- lage|stall, Thy glo- ry|
 [DF]3 [DF] z [DF] | [EG]2 [DB] [CB]2 [EA] | [DB]4 z [DB] | [DB]2 [DF] [EG]2 [F_A] | %8
w: ho- ly, In|dwell- ing rude and|wild; Ne’er|yet was re- gal|
w: mor- row Dawned|with that In- fant’s|birth. Our|sins were great and|
w: veil- ing, Thou|cam’st to die for|all. The|sac- ri- fice is|
 ([F_A]3 [EG]) z [=Ec] | [=Ec]2 [EG] [FA]2 [GB] | ([GB]3 [FA]) z [DB] | [Ec]2 [Ed] [EB]2 [Ec] | %12
w: state * Of|mon- arch proud and|great, * Who|grasped a na- tion’s|
w: sore, * But|these the Sav- ior|bore, * And|God was wroth no|
w: done, * The|world’s a- tone- ment|won, * Till|time its course hath|
 (d3 B) z [Bd] | [Ac]2 [GB] [FA]2 [EG] | [DF]2 F [EG]2 [GB] | !>![FB]3 !>![EA]3 | !>![DB]6 |] %17
w: fate, * So|glor- ious as the|man- ger bed Of|Beth- le-|hem.|
w: more; * His|own Son was the|Child that lay In|Beth- le-|hem.|
w: run, * O|Je- sus, Sav- ior,|Morn- ing Star Of|Beth- le-|hem.|
V:2
 x6 | x6 | x6 | x6 | x6 | x6 | x6 | x6 | x6 | x6 | x6 | x6 | D4 x2 | x6 | x2 F x3 | x6 | x6 |] %17
V:3
 [B,,F,]3 [B,,F,]2 [B,,F,] | [B,,F,]3 [B,,F,] z [B,,F,] | [B,,F,]2 [B,,F,] [B,,F,]2 [B,,F,] | %3
 [B,,F,]2 [B,,F,] [B,,G,]2 [B,,F,] | [B,,F,]3 [B,,F,] z [B,,F,] | %5
 [B,,F,]2 [B,,F,] [B,,F,]2 [B,,F,] | [B,,F,]4 z [B,,B,] | [B,,B,]2 [B,,B,] [B,,B,]2 [B,,B,] | %8
 [E,B,]4 z [C,C] | [C,C]2 [C,C] [C,C]2 [C,C] | [F,C]4 z [F,B,] | [F,A,]2 [F,B,] [F,G,]2 [F,A,] | %12
 ([^F,A,]3 [G,B,]) z [D,F,] | [E,G,]2 [F,A,] [G,B,]2 [A,C] | [B,D]2 [A,C] [G,B,]2 [E,E] | %15
 [F,D]3 [F,,D]3 | [B,,B,]6 |] %17

